X:1
T:Jenny Go Gentle.
B:The Penguin Book of Canadian Folk Sonngs.
S:
M:4/4
L:1/4
K:A
E1/2 E1/2|A1/2 A1/2 A E E1/2 E1/2|E F C2|
w:Wil-lie mar-ried a wife and he brought her home,
A,1/2 A,1/2C B, A,|C E E z1/2 E1/2|
w:Jen-ny go gen-tle, Rose Mol-ly. He
C E A A|c c1/2 c1/2 B B1/2 A1/2|
w:might as well have left her a-lone, As the
G G E E1/2 E1/2|F G A ||
w:dew flies o-ver the green val-ley.